**harm	**harte	**silbe	**rhyme	**timestamp	**phrase	**leadinstrument	**kern
*M4/4	*M4/4	*	*	*	*	*	*
*	*	*	*	*	*	*	*
*	*	*	*	*	*	*	*
*D:	*D:	*	*	*	*	*	*D:
*	*	*	*	*	*	*	*
*	*	*	*	*	*	*	*
1r;	N	.	.	0	.	r	1r;
=1	=1	=1	=1	=1	=1	=1	=1
*>Letter>A	*>Letter>A	*>Letter>A	*>Letter>A	*>Letter>A	*>Letter>A	*>Letter>A	*>Letter>A
*>Label>Intro	*>Label>Intro	*>Label>Intro	*>Label>Intro	*>Label>Intro	*>Label>Intro	*>Label>Intro	*>Label>Intro
1I	D:maj	.	.	0.041	newline	synthesizer	1D 1f# 1a
=2	=2	=2	=2	=2	=2	=2	=2
1I	D:maj	.	.	2.22	.	synthesizer	1D 1f# 1a
=3	=3	=3	=3	=3	=3	=3	=3
1I	D:maj	.	.	4.4	.	synthesizer	1D 1f# 1a
=4	=4	=4	=4	=4	=4	=4	=4
1I	D:maj	.	.	6.58	.	synthesizer	1D 1f# 1a
=5	=5	=5	=5	=5	=5	=5	=5
1I	D:maj	.	.	8.759	newline	synthesizer	1D 1f# 1a
=6	=6	=6	=6	=6	=6	=6	=6
1V	A:sus4(b7)	.	.	10.943	.	synthesizer	1A 1cc# 1ee
=7	=7	=7	=7	=7	=7	=7	=7
1vi7	B:min7	.	.	13.126	.	synthesizer	1B 1dd 1ff# 1aa
=8	=8	=8	=8	=8	=8	=8	=8
1IV7	G:maj9	.	.	15.31	.	synthesizer	1G 1b 1dd 1ff#
=9	=9	=9	=9	=9	=9	=9	=9
1I	D:maj	.	.	17.493	newline	synthesizer	1D 1f# 1a
=10	=10	=10	=10	=10	=10	=10	=10
1V	A:sus4(b7)	.	.	19.671	.	synthesizer	1A 1cc# 1ee
=11	=11	=11	=11	=11	=11	=11	=11
1vi7	B:min7	.	.	21.848	.	synthesizer	1B 1dd 1ff# 1aa
=12	=12	=12	=12	=12	=12	=12	=12
1IV7	G:maj9	.	.	24.026	.	synthesizer	1G 1b 1dd 1ff#
=13	=13	=13	=13	=13	=13	=13	=13
*>Letter>B	*>Letter>B	*>Letter>B	*>Letter>B	*>Letter>B	*>Letter>B	*>Letter>B	*>Letter>B
*>Label>Verse	*>Label>Verse	*>Label>Verse	*>Label>Verse	*>Label>Verse	*>Label>Verse	*>Label>Verse	*>Label>Verse
1I	D:maj	.	.	26.203	newline	voice	1D 1f# 1a
.	.	.	.	.	.	.	.
.	.	See	.	.	.	.	.
.	.	the	.	.	.	.	.
.	.	stone	.	.	.	.	.
=14	=14	=14	=14	=14	=14	=14	=14
1V	A:sus4(b7)	_	.	28.398	.	voice	1A 1cc# 1ee
.	.	set	.	.	.	.	.
.	.	in	.	.	.	.	.
.	.	your	.	.	.	.	.
.	.	eyes	A	.	.	.	.
=15	=15	=15	=15	=15	=15	=15	=15
1vi7	B:min7	_	.	30.592	.	voice	1B 1dd 1ff# 1aa
.	.	.	.	.	.	.	.
.	.	See	.	.	.	.	.
.	.	the	.	.	.	.	.
.	.	thorn	.	.	.	.	.
=16	=16	=16	=16	=16	=16	=16	=16
1IV7	G:maj9	_	.	32.787	.	voice	1G 1b 1dd 1ff#
.	.	twist	.	.	.	.	.
.	.	in	.	.	.	.	.
.	.	your	.	.	.	.	.
.	.	side	A	.	.	.	.
=17	=17	=17	=17	=17	=17	=17	=17
1I	D:maj	_	.	34.982	newline	voice	1D 1f# 1a
.	.	.	.	.	.	.	.
.	.	.	.	.	.	.	.
.	.	I'll	.	.	.	.	.
.	.	wait	B	.	.	.	.
=18	=18	=18	=18	=18	=18	=18	=18
1V	A:sus4(b7)	_	.	37.171	.	voice	1A 1cc# 1ee
.	.	.	.	.	.	.	.
.	.	for	.	.	.	.	.
.	.	you	.	.	.	.	.
=19	=19	=19	=19	=19	=19	=19	=19
1vi7	B:min7	_	.	39.36	.	voice	1B 1dd 1ff# 1aa
.	.	.	.	.	.	.	.
=20	=20	=20	=20	=20	=20	=20	=20
1IV7	G:maj9	.	.	41.549	.	voice	1G 1b 1dd 1ff#
=21	=21	=21	=21	=21	=21	=21	=21
1I	D:maj	.	.	43.737	newline	voice	1D 1f# 1a
.	.	.	.	.	.	.	.
.	.	Slight	.	.	.	.	.
.	.	of	.	.	.	.	.
.	.	hand	.	.	.	.	.
=22	=22	=22	=22	=22	=22	=22	=22
1V	A:sus4(b7)	_	.	45.913	.	voice	1A 1cc# 1ee
.	.	and	.	.	.	.	.
.	.	twist	.	.	.	.	.
.	.	of	.	.	.	.	.
.	.	fate	B	.	.	.	.
=23	=23	=23	=23	=23	=23	=23	=23
1vi7	B:min7	_	.	48.09	.	voice	1B 1dd 1ff# 1aa
.	.	.	.	.	.	.	.
.	.	On	.	.	.	.	.
.	.	a	.	.	.	.	.
.	.	bed	.	.	.	.	.
.	.	of	.	.	.	.	.
.	.	nails	.	.	.	.	.
=24	=24	=24	=24	=24	=24	=24	=24
1IV7	G:maj9	_	.	50.266	.	voice	1G 1b 1dd 1ff#
.	.	she	.	.	.	.	.
.	.	makes	.	.	.	.	.
.	.	me	.	.	.	.	.
.	.	wait	B	.	.	.	.
=25	=25	=25	=25	=25	=25	=25	=25
1I	D:maj	_	.	52.442	newline	voice	1D 1f# 1a
.	.	.	.	.	.	.	.
.	.	.	.	.	.	.	.
.	.	And	.	.	.	.	.
.	.	I	.	.	.	.	.
.	.	wait	B	.	.	.	.
=26	=26	=26	=26	=26	=26	=26	=26
1V	A:sus4(b7)	_	.	54.615	.	voice	1A 1cc# 1ee
.	.	.	.	.	.	.	.
.	.	with-	.	.	.	.	.
.	.	-out	.	.	.	.	.
=27	=27	=27	=27	=27	=27	=27	=27
1vi7	B:min7	_	.	56.789	.	voice	1B 1dd 1ff# 1aa
.	.	you	.	.	.	.	.
.	.	_	.	.	.	.	.
.	.	.	.	.	.	.	.
=28	=28	=28	=28	=28	=28	=28	=28
1IV7	G:maj9	.	.	58.962	.	voice	1G 1b 1dd 1ff#
.	.	With	.	.	.	.	.
.	.	or	.	.	.	.	.
.	.	with-	.	.	.	.	.
.	.	-out	.	.	.	.	.
=29	=29	=29	=29	=29	=29	=29	=29
*>Letter>C2	*>Letter>C2	*>Letter>C2	*>Letter>C2	*>Letter>C2	*>Letter>C2	*>Letter>C2	*>Letter>C2
*>Label>Chorus	*>Label>Chorus	*>Label>Chorus	*>Label>Chorus	*>Label>Chorus	*>Label>Chorus	*>Label>Chorus	*>Label>Chorus
1I	D:maj	_	.	61.135	newline	voice	1D 1f# 1a
.	.	you	.	.	.	.	.
.	.	_	.	.	.	.	.
=30	=30	=30	=30	=30	=30	=30	=30
1V	A:sus4(b7)	.	.	63.33	.	voice	1A 1cc# 1ee
.	.	With	.	.	.	.	.
.	.	or	.	.	.	.	.
.	.	with-	.	.	.	.	.
=31	=31	=31	=31	=31	=31	=31	=31
1vi7	B:min7	-out	.	65.524	.	voice	1B 1dd 1ff# 1aa
.	.	_	.	.	.	.	.
.	.	you	.	.	.	.	.
=32	=32	=32	=32	=32	=32	=32	=32
1IV7	G:maj9	_	.	67.719	.	voice	1G 1b 1dd 1ff#
.	.	.	.	.	.	.	.
.	.	.	.	.	.	.	.
=33	=33	=33	=33	=33	=33	=33	=33
*>Letter>B2	*>Letter>B2	*>Letter>B2	*>Letter>B2	*>Letter>B2	*>Letter>B2	*>Letter>B2	*>Letter>B2
*>Label>Verse	*>Label>Verse	*>Label>Verse	*>Label>Verse	*>Label>Verse	*>Label>Verse	*>Label>Verse	*>Label>Verse
1I	D:maj	.	.	69.913	newline	voice	1D 1f# 1a
.	.	.	.	.	.	.	.
.	.	Through	.	.	.	.	.
.	.	the	.	.	.	.	.
.	.	storm	C	.	.	.	.
=34	=34	=34	=34	=34	=34	=34	=34
1V	A:sus4(b7)	_	.	72.095	.	voice	1A 1cc# 1ee
.	.	we	.	.	.	.	.
.	.	reach	.	.	.	.	.
.	.	the	.	.	.	.	.
.	.	shore	C	.	.	.	.
=35	=35	=35	=35	=35	=35	=35	=35
1vi7	B:min7	_	.	74.277	.	voice	1B 1dd 1ff# 1aa
.	.	.	.	.	.	.	.
.	.	You	.	.	.	.	.
.	.	give	.	.	.	.	.
.	.	it	.	.	.	.	.
.	.	all	.	.	.	.	.
=36	=36	=36	=36	=36	=36	=36	=36
1IV7	G:maj9	_	.	76.459	.	voice	1G 1b 1dd 1ff#
.	.	but	.	.	.	.	.
.	.	I	.	.	.	.	.
.	.	want	.	.	.	.	.
.	.	more	C	.	.	.	.
=37	=37	=37	=37	=37	=37	=37	=37
1I	D:maj	_	.	78.641	newline	voice	1D 1f# 1a
.	.	.	.	.	.	.	.
.	.	.	.	.	.	.	.
.	.	And	.	.	.	.	.
.	.	I'm	.	.	.	.	.
.	.	wait-	.	.	.	.	.
=38	=38	=38	=38	=38	=38	=38	=38
1V	A:sus4(b7)	_	.	80.828	.	voice	1A 1cc# 1ee
.	.	.	.	.	.	.	.
.	.	-ing	.	.	.	.	.
.	.	for	C	.	.	.	.
=39	=39	=39	=39	=39	=39	=39	=39
1vi7	B:min7	_	.	83.014	.	voice	1B 1dd 1ff# 1aa
.	.	you	.	.	.	.	.
.	.	.	.	.	.	.	.
=40	=40	=40	=40	=40	=40	=40	=40
1IV7	G:maj9	.	.	85.2	.	voice	1G 1b 1dd 1ff#
.	.	With	.	.	.	.	.
.	.	or	C	.	.	.	.
.	.	with-	.	.	.	.	.
.	.	-out	.	.	.	.	.
=41	=41	=41	=41	=41	=41	=41	=41
*>Letter>C	*>Letter>C	*>Letter>C	*>Letter>C	*>Letter>C	*>Letter>C	*>Letter>C	*>Letter>C
*>Label>Chorus	*>Label>Chorus	*>Label>Chorus	*>Label>Chorus	*>Label>Chorus	*>Label>Chorus	*>Label>Chorus	*>Label>Chorus
1I	D:maj	_	.	87.387	newline	voice	1D 1f# 1a
.	.	you	.	.	.	.	.
.	.	_	.	.	.	.	.
=42	=42	=42	=42	=42	=42	=42	=42
1V	A:sus4(b7)	.	.	89.562	.	voice	1A 1cc# 1ee
.	.	With	.	.	.	.	.
.	.	or	.	.	.	.	.
.	.	with-	.	.	.	.	.
=43	=43	=43	=43	=43	=43	=43	=43
1vi7	B:min7	_	.	91.737	.	voice	1B 1dd 1ff# 1aa
.	.	-out	.	.	.	.	.
.	.	you	.	.	.	.	.
.	.	ah	.	.	.	.	.
.	.	_	.	.	.	.	.
=44	=44	=44	=44	=44	=44	=44	=44
1IV7	G:maj9	_	.	93.912	.	voice	1G 1b 1dd 1ff#
.	.	.	.	.	.	.	.
.	.	I	.	.	.	.	.
.	.	can't	.	.	.	.	.
.	.	live	.	.	.	.	.
=45	=45	=45	=45	=45	=45	=45	=45
1I	D:maj	_	.	96.088	newline	voice	1D 1f# 1a
.	.	.	.	.	.	.	.
=46	=46	=46	=46	=46	=46	=46	=46
1V	A:sus4(b7)	.	.	98.278	.	voice	1A 1cc# 1ee
.	.	with	.	.	.	.	.
.	.	or	.	.	.	.	.
.	.	with-	.	.	.	.	.
=47	=47	=47	=47	=47	=47	=47	=47
1vi7	B:min7	-out	.	100.468	.	voice	1B 1dd 1ff# 1aa
.	.	_	.	.	.	.	.
.	.	you	.	.	.	.	.
=48	=48	=48	=48	=48	=48	=48	=48
1IV7	G:maj9	.	.	102.658	.	voice	1G 1b 1dd 1ff#
=49	=49	=49	=49	=49	=49	=49	=49
1I	D:maj	.	.	104.849	newline	guitar	1D 1f# 1a
=50	=50	=50	=50	=50	=50	=50	=50
1V	A:sus4(b7)	.	.	107.021	.	guitar	1A 1cc# 1ee
=51	=51	=51	=51	=51	=51	=51	=51
1vi7	B:min7	.	.	109.193	.	guitar	1B 1dd 1ff# 1aa
=52	=52	=52	=52	=52	=52	=52	=52
1IV7	G:maj9	.	.	111.365	.	guitar	1G 1b 1dd 1ff#
.	.	.	.	.	.	.	.
.	.	And	.	.	.	.	.
.	.	you	.	.	.	.	.
=53	=53	=53	=53	=53	=53	=53	=53
*>Letter>D	*>Letter>D	*>Letter>D	*>Letter>D	*>Letter>D	*>Letter>D	*>Letter>D	*>Letter>D
*>Label>Bridge	*>Label>Bridge	*>Label>Bridge	*>Label>Bridge	*>Label>Bridge	*>Label>Bridge	*>Label>Bridge	*>Label>Bridge
1I	D:maj	give	.	113.537	newline	voice	1D 1f# 1a
.	.	your-	.	.	.	.	.
.	.	-self	.	.	.	.	.
.	.	a-	.	.	.	.	.
.	.	-way	B	.	.	.	.
=54	=54	=54	=54	=54	=54	=54	=54
1IV7	G:maj9	_	.	115.71	.	voice	1G 1b 1dd 1ff#
.	.	_	.	.	.	.	.
.	.	.	.	.	.	.	.
.	.	And	.	.	.	.	.
.	.	you	.	.	.	.	.
.	.	give	.	.	.	.	.
=55	=55	=55	=55	=55	=55	=55	=55
1I	D:maj	_	.	117.884	.	voice	1D 1f# 1a
.	.	your-	.	.	.	.	.
.	.	-self	.	.	.	.	.
.	.	a-	.	.	.	.	.
.	.	-way	.	.	.	.	.
=56	=56	=56	=56	=56	=56	=56	=56
1IV7	G:maj9	_	.	120.057	.	voice	1G 1b 1dd 1ff#
.	.	_	.	.	.	.	.
.	.	.	.	.	.	.	.
.	.	And	.	.	.	.	.
.	.	you	.	.	.	.	.
.	.	give	.	.	.	.	.
=57	=57	=57	=57	=57	=57	=57	=57
1I	D:maj	_	.	122.231	newline	voice	1D 1f# 1a
.	.	.	.	.	.	.	.
.	.	And	.	.	.	.	.
.	.	you	.	.	.	.	.
.	.	give	.	.	.	.	.
=58	=58	=58	=58	=58	=58	=58	=58
1IV7	G:maj9	_	.	124.417	.	voice	1G 1b 1dd 1ff#
.	.	.	.	.	.	.	.
.	.	And	.	.	.	.	.
.	.	you	.	.	.	.	.
=59	=59	=59	=59	=59	=59	=59	=59
1vi7	B:min7	give	.	126.603	.	voice	1B 1dd 1ff# 1aa
.	.	your-	.	.	.	.	.
.	.	-self	.	.	.	.	.
.	.	a-	.	.	.	.	.
.	.	-way	.	.	.	.	.
=60	=60	=60	=60	=60	=60	=60	=60
1IV7	G:maj9	_	.	128.79	.	voice	1G 1b 1dd 1ff#
.	.	_	.	.	.	.	.
.	.	_	.	.	.	.	.
.	.	.	.	.	.	.	.
=61	=61	=61	=61	=61	=61	=61	=61
1I	D:maj	.	.	130.976	newline	voice	1D 1f# 1a
.	.	My	.	.	.	.	.
.	.	hands	.	.	.	.	.
.	.	are	.	.	.	.	.
.	.	tied	.	.	.	.	.
=62	=62	=62	=62	=62	=62	=62	=62
1IV7	G:maj9	_	.	133.16	.	voice	1G 1b 1dd 1ff#
.	.	.	.	.	.	.	.
.	.	.	.	.	.	.	.
=63	=63	=63	=63	=63	=63	=63	=63
1I	D:maj	.	.	135.344	.	voice	1D 1f# 1a
.	.	My	.	.	.	.	.
.	.	bo-	.	.	.	.	.
.	.	-dy	.	.	.	.	.
.	.	bruised	D	.	.	.	.
=64	=64	=64	=64	=64	=64	=64	=64
1IV7	G:maj9	_	.	137.529	.	voice	1G 1b 1dd 1ff#
.	.	she	.	.	.	.	.
.	.	got	.	.	.	.	.
.	.	me	.	.	.	.	.
.	.	with	.	.	.	.	.
=65	=65	=65	=65	=65	=65	=65	=65
1I	D:maj	_	.	139.713	newline	voice	1D 1f# 1a
.	.	.	.	.	.	.	.
.	.	No-	.	.	.	.	.
.	.	-thing	.	.	.	.	.
.	.	to	.	.	.	.	.
.	.	win	.	.	.	.	.
=66	=66	=66	=66	=66	=66	=66	=66
1IV7	G:maj9	_	.	141.908	.	voice	1G 1b 1dd 1ff#
.	.	and	.	.	.	.	.
.	.	.	.	.	.	.	.
=67	=67	=67	=67	=67	=67	=67	=67
1vi7	B:min7	No-	.	144.104	.	voice	1B 1dd 1ff# 1aa
.	.	-thing	.	.	.	.	.
.	.	left	.	.	.	.	.
.	.	to	.	.	.	.	.
.	.	lose	D	.	.	.	.
=68	=68	=68	=68	=68	=68	=68	=68
1IV7	G:maj9	_	.	146.299	.	voice	1G 1b 1dd 1ff#
.	.	.	.	.	.	.	.
.	.	And	.	.	.	.	.
.	.	you	.	.	.	.	.
=69	=69	=69	=69	=69	=69	=69	=69
1I	D:maj	give	.	148.494	newline	voice	1D 1f# 1a
.	.	your-	.	.	.	.	.
.	.	-self	.	.	.	.	.
.	.	a-	.	.	.	.	.
.	.	-way	B	.	.	.	.
=70	=70	=70	=70	=70	=70	=70	=70
1IV7	G:maj9	_	.	150.672	.	voice	1G 1b 1dd 1ff#
.	.	_	.	.	.	.	.
.	.	.	.	.	.	.	.
.	.	And	.	.	.	.	.
.	.	you	.	.	.	.	.
.	.	give	.	.	.	.	.
=71	=71	=71	=71	=71	=71	=71	=71
1I	D:maj	_	.	152.849	.	voice	1D 1f# 1a
.	.	your-	.	.	.	.	.
.	.	-self	.	.	.	.	.
.	.	a-	.	.	.	.	.
.	.	-way	.	.	.	.	.
=72	=72	=72	=72	=72	=72	=72	=72
1IV7	G:maj9	_	.	155.026	.	voice	1G 1b 1dd 1ff#
.	.	_	.	.	.	.	.
.	.	.	.	.	.	.	.
.	.	And	.	.	.	.	.
.	.	you	.	.	.	.	.
.	.	give	.	.	.	.	.
=73	=73	=73	=73	=73	=73	=73	=73
1I	D:maj	_	.	157.204	newline	voice	1D 1f# 1a
.	.	.	.	.	.	.	.
.	.	And	.	.	.	.	.
.	.	you	.	.	.	.	.
.	.	give	.	.	.	.	.
=74	=74	=74	=74	=74	=74	=74	=74
1IV7	G:maj9	_	.	159.394	.	voice	1G 1b 1dd 1ff#
.	.	.	.	.	.	.	.
.	.	And	.	.	.	.	.
.	.	you	.	.	.	.	.
=75	=75	=75	=75	=75	=75	=75	=75
1vi7	B:min7	give	.	161.584	.	voice	1B 1dd 1ff# 1aa
.	.	your-	.	.	.	.	.
.	.	-self	.	.	.	.	.
.	.	a-	.	.	.	.	.
.	.	-way	.	.	.	.	.
=76	=76	=76	=76	=76	=76	=76	=76
1IV7	G:maj9	_	.	163.773	.	voice	1G 1b 1dd 1ff#
.	.	_	.	.	.	.	.
.	.	.	.	.	.	.	.
.	.	With	.	.	.	.	.
.	.	or	.	.	.	.	.
.	.	with-	.	.	.	.	.
.	.	-out	.	.	.	.	.
=77	=77	=77	=77	=77	=77	=77	=77
*>Letter>C	*>Letter>C	*>Letter>C	*>Letter>C	*>Letter>C	*>Letter>C	*>Letter>C	*>Letter>C
*>Label>Chorus	*>Label>Chorus	*>Label>Chorus	*>Label>Chorus	*>Label>Chorus	*>Label>Chorus	*>Label>Chorus	*>Label>Chorus
1I	D:maj	_	.	165.963	newline	voice	1D 1f# 1a
.	.	you	.	.	.	.	.
.	.	_	.	.	.	.	.
=78	=78	=78	=78	=78	=78	=78	=78
1V	A:sus4(b7)	.	.	168.142	.	voice	1A 1cc# 1ee
.	.	With	.	.	.	.	.
.	.	or	.	.	.	.	.
.	.	with-	.	.	.	.	.
=79	=79	=79	=79	=79	=79	=79	=79
1vi7	B:min7	_	.	170.322	.	voice	1B 1dd 1ff# 1aa
.	.	-out	.	.	.	.	.
.	.	you	.	.	.	.	.
.	.	Oh	.	.	.	.	.
.	.	_	.	.	.	.	.
=80	=80	=80	=80	=80	=80	=80	=80
1IV7	G:maj9	_	.	172.501	.	voice	1G 1b 1dd 1ff#
.	.	.	.	.	.	.	.
.	.	I	.	.	.	.	.
.	.	can't	.	.	.	.	.
.	.	live	.	.	.	.	.
=81	=81	=81	=81	=81	=81	=81	=81
1I	D:maj	_	.	174.68	newline	voice	1D 1f# 1a
=82	=82	=82	=82	=82	=82	=82	=82
1V	A:sus4(b7)	.	.	176.852	.	voice	1A 1cc# 1ee
.	.	with	.	.	.	.	.
.	.	or	.	.	.	.	.
.	.	with-	.	.	.	.	.
=83	=83	=83	=83	=83	=83	=83	=83
1vi7	B:min7	-out	.	179.024	.	voice	1B 1dd 1ff# 1aa
.	.	_	.	.	.	.	.
.	.	you	.	.	.	.	.
=84	=84	=84	=84	=84	=84	=84	=84
1IV7	G:maj9	_	.	181.196	.	voice	1G 1b 1dd 1ff#
.	.	.	.	.	.	.	.
=85	=85	=85	=85	=85	=85	=85	=85
1I	D:maj	Oh	.	183.368	newline	voice	1D 1f# 1a
.	.	_	.	.	.	.	.
.	.	_	.	.	.	.	.
=86	=86	=86	=86	=86	=86	=86	=86
1V	A:sus4(b7)	_	.	185.561	.	voice	1A 1cc# 1ee
.	.	.	.	.	.	.	.
=87	=87	=87	=87	=87	=87	=87	=87
1vi7	B:min7	Oh	.	187.754	.	voice	1B 1dd 1ff# 1aa
.	.	_	.	.	.	.	.
.	.	_	.	.	.	.	.
=88	=88	=88	=88	=88	=88	=88	=88
1IV7	G:maj9	_	.	189.947	.	voice	1G 1b 1dd 1ff#
.	.	_	.	.	.	.	.
.	.	.	.	.	.	.	.
=89	=89	=89	=89	=89	=89	=89	=89
1I	D:maj	Oh	.	192.14	newline	voice	1D 1f# 1a
.	.	_	.	.	.	.	.
.	.	_	.	.	.	.	.
=90	=90	=90	=90	=90	=90	=90	=90
1V	A:sus4(b7)	_	.	194.319	.	voice	1A 1cc# 1ee
.	.	_	.	.	.	.	.
.	.	_	.	.	.	.	.
.	.	_	.	.	.	.	.
=91	=91	=91	=91	=91	=91	=91	=91
1vi7	B:min7	_	.	196.498	.	voice	1B 1dd 1ff# 1aa
.	.	_	.	.	.	.	.
.	.	_	.	.	.	.	.
=92	=92	=92	=92	=92	=92	=92	=92
1IV7	G:maj9	_	.	198.677	.	voice	1G 1b 1dd 1ff#
.	.	.	.	.	.	.	.
.	.	With	.	.	.	.	.
.	.	or	.	.	.	.	.
.	.	with-	.	.	.	.	.
.	.	-out	.	.	.	.	.
=93	=93	=93	=93	=93	=93	=93	=93
*>Letter>C	*>Letter>C	*>Letter>C	*>Letter>C	*>Letter>C	*>Letter>C	*>Letter>C	*>Letter>C
*>Label>Chorus	*>Label>Chorus	*>Label>Chorus	*>Label>Chorus	*>Label>Chorus	*>Label>Chorus	*>Label>Chorus	*>Label>Chorus
1I	D:maj	_	.	200.856	newline	voice	1D 1f# 1a
.	.	you	.	.	.	.	.
.	.	_	.	.	.	.	.
=94	=94	=94	=94	=94	=94	=94	=94
1V	A:sus4(b7)	.	.	203.038	.	voice	1A 1cc# 1ee
.	.	With	.	.	.	.	.
.	.	or	.	.	.	.	.
.	.	with-	.	.	.	.	.
=95	=95	=95	=95	=95	=95	=95	=95
1vi7	B:min7	_	.	205.22	.	voice	1B 1dd 1ff# 1aa
.	.	-out	.	.	.	.	.
.	.	you	.	.	.	.	.
.	.	Oh	.	.	.	.	.
.	.	_	.	.	.	.	.
=96	=96	=96	=96	=96	=96	=96	=96
1IV7	G:maj9	_	.	207.402	.	voice	1G 1b 1dd 1ff#
.	.	.	.	.	.	.	.
.	.	I	.	.	.	.	.
.	.	can't	.	.	.	.	.
.	.	live	.	.	.	.	.
=97	=97	=97	=97	=97	=97	=97	=97
1I	D:maj	_	.	209.584	newline	voice	1D 1f# 1a
=98	=98	=98	=98	=98	=98	=98	=98
1V	A:sus4(b7)	_	.	211.761	.	voice	1A 1cc# 1ee
.	.	.	.	.	.	.	.
.	.	with	.	.	.	.	.
.	.	or	.	.	.	.	.
.	.	with-	.	.	.	.	.
=99	=99	=99	=99	=99	=99	=99	=99
1vi7	B:min7	-out	.	213.937	.	voice	1B 1dd 1ff# 1aa
.	.	_	.	.	.	.	.
.	.	you	.	.	.	.	.
=100	=100	=100	=100	=100	=100	=100	=100
1IV7	G:maj9	_	.	216.113	.	voice	1G 1b 1dd 1ff#
.	.	.	.	.	.	.	.
.	.	With	.	.	.	.	.
.	.	or	.	.	.	.	.
.	.	with-	.	.	.	.	.
=101	=101	=101	=101	=101	=101	=101	=101
*>Letter>A	*>Letter>A	*>Letter>A	*>Letter>A	*>Letter>A	*>Letter>A	*>Letter>A	*>Letter>A
*>Label>Interlude	*>Label>Interlude	*>Label>Interlude	*>Label>Interlude	*>Label>Interlude	*>Label>Interlude	*>Label>Interlude	*>Label>Interlude
1I	D:maj	-out	.	218.289	newline	synthesizer	1D 1f# 1a
.	.	you	.	.	.	.	.
.	.	_	.	.	.	.	.
=102	=102	=102	=102	=102	=102	=102	=102
1I	D:maj	.	.	220.482	.	synthesizer	1D 1f# 1a
=103	=103	=103	=103	=103	=103	=103	=103
1I	D:maj	.	.	222.675	.	synthesizer	1D 1f# 1a
=104	=104	=104	=104	=104	=104	=104	=104
1I	D:maj	.	.	224.868	.	synthesizer	1D 1f# 1a
=105	=105	=105	=105	=105	=105	=105	=105
1I	D:maj	Ooh	.	227.061	newline	synthesizer	1D 1f# 1a
=106	=106	=106	=106	=106	=106	=106	=106
1I	D:maj	_	.	229.239	.	synthesizer	1D 1f# 1a
.	.	Ooh	.	.	.	.	.
.	.	_	.	.	.	.	.
=107	=107	=107	=107	=107	=107	=107	=107
1I	D:maj	ooh	.	231.418	.	synthesizer	1D 1f# 1a
.	.	_	.	.	.	.	.
.	.	_	.	.	.	.	.
=108	=108	=108	=108	=108	=108	=108	=108
1I	D:maj	_	.	233.596	.	synthesizer	1D 1f# 1a
.	.	.	.	.	.	.	.
=109	=109	=109	=109	=109	=109	=109	=109
1I	D:maj	Hoo	.	235.775	newline	synthesizer	1D 1f# 1a
.	.	_	.	.	.	.	.
.	.	_	.	.	.	.	.
=110	=110	=110	=110	=110	=110	=110	=110
1I	D:maj	_	.	237.971	.	synthesizer	1D 1f# 1a
.	.	Ooh	.	.	.	.	.
.	.	_	.	.	.	.	.
.	.	Ooh	.	.	.	.	.
=111	=111	=111	=111	=111	=111	=111	=111
1I	D:maj	_	.	240.167	.	synthesizer	1D 1f# 1a
.	.	_	.	.	.	.	.
.	.	_	.	.	.	.	.
=112	=112	=112	=112	=112	=112	=112	=112
1I	D:maj	_	.	242.364	.	synthesizer	1D 1f# 1a
.	.	.	.	.	.	.	.
=113	=113	=113	=113	=113	=113	=113	=113
*>Letter>C	*>Letter>C	*>Letter>C	*>Letter>C	*>Letter>C	*>Letter>C	*>Letter>C	*>Letter>C
*>Label>Solo	*>Label>Solo	*>Label>Solo	*>Label>Solo	*>Label>Solo	*>Label>Solo	*>Label>Solo	*>Label>Solo
1I	D:maj	.	.	244.56	newline	guitar	1D 1f# 1a
=114	=114	=114	=114	=114	=114	=114	=114
1V	A:sus4(b7)	.	.	246.741	.	guitar	1A 1cc# 1ee
=115	=115	=115	=115	=115	=115	=115	=115
1vi7	B:min7	.	.	248.922	.	guitar	1B 1dd 1ff# 1aa
=116	=116	=116	=116	=116	=116	=116	=116
1IV7	G:maj9	.	.	251.103	.	guitar	1G 1b 1dd 1ff#
=117	=117	=117	=117	=117	=117	=117	=117
1I	D:maj	.	.	253.284	newline	guitar	1D 1f# 1a
=118	=118	=118	=118	=118	=118	=118	=118
1V	A:sus4(b7)	.	.	255.457	.	guitar	1A 1cc# 1ee
=119	=119	=119	=119	=119	=119	=119	=119
1vi7	B:min7	.	.	257.63	.	guitar	1B 1dd 1ff# 1aa
=120	=120	=120	=120	=120	=120	=120	=120
1IV7	G:maj9	.	.	259.803	.	guitar	1G 1b 1dd 1ff#
=121	=121	=121	=121	=121	=121	=121	=121
1I	D:maj	.	.	261.976	newline	guitar	1D 1f# 1a
=122	=122	=122	=122	=122	=122	=122	=122
1V	A:sus4(b7)	.	.	264.165	.	guitar	1A 1cc# 1ee
=123	=123	=123	=123	=123	=123	=123	=123
1vi7	B:min7	.	.	266.354	.	guitar	1B 1dd 1ff# 1aa
=124	=124	=124	=124	=124	=124	=124	=124
1IV7	G:maj9	.	.	268.542	.	guitar	1G 1b 1dd 1ff#
=125	=125	=125	=125	=125	=125	=125	=125
*>Label>>Fadeout	*>Label>>Fadeout	*>Label>>Fadeout	*>Label>>Fadeout	*>Label>>Fadeout	*>Label>>Fadeout	*>Label>>Fadeout	*>Label>>Fadeout
1I	D:maj	.	.	270.731	newline	guitar	1D 1f# 1a
=126	=126	=126	=126	=126	=126	=126	=126
1V	A:sus4(b7)	.	.	272.903	.	guitar	1A 1cc# 1ee
=127	=127	=127	=127	=127	=127	=127	=127
1vi7	B:min7	.	.	275.076	.	guitar	1B 1dd 1ff# 1aa
=128	=128	=128	=128	=128	=128	=128	=128
1IV7	G:maj9	.	.	277.248	.	guitar	1G 1b 1dd 1ff#
=129	=129	=129	=129	=129	=129	=129	=129
1I	D:maj	.	.	279.42	newline	guitar	1D 1f# 1a
=130	=130	=130	=130	=130	=130	=130	=130
1V	A:sus4(b7)	.	.	281.608	.	guitar	1A 1cc# 1ee
=131	=131	=131	=131	=131	=131	=131	=131
1vi7	B:min7	.	.	283.796	.	guitar	1B 1dd 1ff# 1aa
=132	=132	=132	=132	=132	=132	=132	=132
1IV7	G:maj9	.	.	285.984	.	guitar	1G 1b 1dd 1ff#
=133	=133	=133	=133	=133	=133	=133	=133
1I	D:maj	.	.	288.172	newline	guitar	1D 1f# 1a
=134	=134	=134	=134	=134	=134	=134	=134
1V	A:sus4(b7)	.	.	289.878	.	guitar	1A 1cc# 1ee
=135	=135	=135	=135	=135	=135	=135	=135
1vi7	B:min7	.	.	291.585	.	guitar	1B 1dd 1ff# 1aa
1r;	N	.	.	293.291	.	r	1r;
1r;	N	.	.	296.176	.	r	1r;
*-	*-	*-	*-	*-	*-	*-	*-
!!!BillboardChartDate: 1987/06/27
!!!BillboardPeak: 1
!!!BillboardWeeksOnChart: 18
!!!COC: U2
!!!ENC: Nathaniel Condit-Schultz
!!!EST: Awating manual error checking and editing.
!!!OTL: With Or Without You
!!!RDF**harte: Chris Harte's syntax, used by MIREX
!!!RDF**harmony: **recip + pitch class of root + harmonic quality
!!!RDF**leadinstrument: original McGill primary instrumentation annotation
!!!RDF**phrase: newline = linebreak in original McGill transcription
!!!RDF**timestamp: McGill audio timestamp in seconds
!!!RDT: 2017/01/12/
!!!SampleActualRank: 38
!!!SampleID#: 0681
!!!SampleTargetRank: 38
!!!MBID: 6b9a509f-6907-4a6e-9345-2f12da09ba4b
